src/main/resources/icons/AllIcons/toolwindows/toolWindowUIDesigner_dark.svg

<!-- Copyright 2000-2021 JetBrains s.r.o. Use of this source code is governed by the Apache 2.0 license that can be found in the LICENSE file. -->
<svg xmlns="http://www.w3.org/2000/svg" width="13" height="13" viewBox="0 0 13 13">
  <g fill="none" fill-rule="evenodd">
    <path fill="#AFB1B3" d="M10.5042631,3.34236754 L8.75764585,1.59575031 L4.0999999,6.25339625 L4.0999999,8.00001348 L5.84661713,8.00001348 L10.5042631,3.34236754 Z M11.9597774,1.88685318 C12.1467407,1.69987191 12.1467407,1.20052583 11.9597774,1.01354457 L11.0864688,0.140235951 C10.8995055,-0.0467453171 10.4001235,-0.0467453171 10.2131602,0.140235951 L9.33985159,1.01354457 L11.0864688,2.7601618 L11.9597774,1.88685318 Z"/>
    <path fill="#AFB1B3" d="M6.92157789,1 L5.47183536,2.4000001 L2.4000001,2.4000001 L2.4000001,9.5999999 L9.5999999,9.5999999 L9.5999999,6.42082053 L11,5.06885616 L11,11 L1,11 L1,1 L6.92157789,1 Z"/>
  </g>
</svg>

<svg xmlns="http://www.w3.org/2000/svg" width="13" height="13" viewBox="0 0 13 13"><rect id="frame" width="13" height="13" fill="none"/><g fill="#AFB1B3" fill-rule="evenodd"><path d="M10.504 3.342L8.758 1.596 4.1 6.253V8h1.747l4.657-4.658zm1.456-1.455c.187-.187.187-.686 0-.873L11.086.14c-.186-.187-.686-.187-.873 0l-.873.874 1.746 1.746.874-.873z"/><path d="M6.922 1l-1.45 1.4H2.4v7.2h7.2V6.42L11 5.07V11H1V1h5.922z"/></g></svg>
